X: 141003
Q: "Slow."
M: 2/4
L: 1/8
K: G
uD2 |\
g2eg | fde^c | A2B^c | d2zud |\
g2eg | fde^c | A2fe  | d2=cA |\


